X:1
T:A Santa Chiara
T:A Santa Chiara
T:Giovanni Pietro Biandra
T:Aria
T:Source : Madrigaletti a 1, 2, e 3 voci. Libro primo---Venezia---B.Magni (Gardano)---1626. Editor : André Vierendeels (15/03/15). 
T:Notes : Original clefs : C3, F4 Editorial accidentals above the staff S.Chiara= S.Clare
C:Giovanni Pietro Biandra
%%score 1 2
L:1/8
Q:1/4=120
M:4/4
K:C
V:1 treble nm="Alto" snm="A"
V:2 bass nm="BC" snm="BC"
V:1
 z2 DE FE FG | A3 _B G3 F | F2 F2 z2 G2- | G2 FE E3 D | D2 A4 GF | E4 D4 ::[M:3/2] D4 G4 E4 | %7
w: O ve- la- * * *|* ta gra- ti-|o- sa, o|_ be- ne- det- ta|Chia- ra'o del Ciel|Spo- za|u- na fiam-|
w: Chi vid- de _ _ _|_ _ mai fra|no- i, piu|_ ri- lu- cen- te|Sol ne rag- gi|suo- i,|de la Ma-|
w: A- gne- se _ _ _|_ _ tua so-|rel- la, do-|* na- sti'al ssuo far-|tor Ver- gi- ne|Bel- la,|co- me lu-|
w: Que- ste qua- * * *|* te- ro pa-|ro- le, pie-|* ne di- vi- no'af-|fet- t'o chia- ro|So- le,|pren- di'e con-|
 A2 G2 F6 E2 | E4 D4 C4 | A,2 B,2 C2 D2 E4 |[M:4/4] F4 E4 | D8 :| z8 | z8 | z8 | z8 | z8 | z8 | %18
w: ma d'A- mor al|pet- to smor-|to _ _ _ _|ch'io por-|to.|||||||
w: dre sei Ro- sa'e|del suo Fi-|glio _ _ _ _|sei gi-|glio.|||||||
w: cen- te Stel- la'in|chia- ro Cie-|lo _ _ _ _|per ze-|lo.|||||||
w: so- la quel af-|flit- to co-|re _ _ _ _|che mo-|re.|||||||
 z8 | z8 | z8 | z8 | z8 | z8 | z8 | z8 | z8 | z8 | z8 | z8 | z8 |] %31
w: |||||||||||||
w: |||||||||||||
w: |||||||||||||
w: |||||||||||||
V:2
 D,8 | F,2 _B,,2 C,4 | F,,4 C,4 | B,,4 C,2 E,2 | G,2 D,2 F,2 G,2 | A,4 D,4 :: %6
[M:3/2] G,4 E,4 A,2 G,2 |"^b" F,4 B,4 G,4 | A,4 D,4 E,4 | F,8 C,4 |[M:4/4] D,4 A,,4 | D,8 :| z8 | %13
 z8 | z8 | z8 | z8 | z8 | z8 | z8 | z8 | z8 | z8 | z8 | z8 | z8 | z8 | z8 | z8 | z8 | z8 |] %31

